X:151
T: ICH FUHR EINSTMALS AUF STILLER SEE
N: E0079
O: Europa, Mitteleuropa, Deutschland, Odenwald
R: erzaehlendes Volks - Lied, Sage, Liebe
M: 4/4
L: 1/8
K: F
FAG | GF2dc3B | B2A2z2
AB | c3AdcBA | AGG2G2
FA | c2c2cf2d | dcc2c2B
A | B2B2BdcB | A2c2c2
FA | c2c2cf2d | dcc2c2B
A | B2B2BdcB | A2c2c

@@@ Tune index: 3801
